icons/twitter.svg

<svg width="24" height="24" viewBox="0 0 24 24" fill="none" xmlns="http://www.w3.org/2000/svg">
<path d="M23.643 4.93701C22.808 5.30701 21.911 5.55701 20.968 5.67001C21.93 5.09401 22.668 4.18001 23.016 3.09201C22.116 3.62601 21.119 4.01401 20.058 4.22201C19.208 3.31801 17.998 2.75201 16.658 2.75201C14.086 2.75201 12 4.83801 12 7.41201C12 7.77601 12.042 8.13001 12.12 8.47201C8.24701 8.27701 4.81601 6.42201 2.51801 3.60401C2.11801 4.29401 1.88801 5.09401 1.88801 5.94601C1.88801 7.56201 2.71101 8.98901 3.96001 9.82401C3.19601 9.79901 2.47801 9.59001 1.85001 9.24101V9.30101C1.85001 11.558 3.45501 13.441 5.58701 13.869C5.19501 13.975 4.78401 14.031 4.36001 14.031C4.06001 14.031 3.76701 14.003 3.48301 13.949C4.07601 15.799 5.79601 17.147 7.83501 17.183C6.24001 18.433 4.23101 19.178 2.04901 19.178C1.67301 19.178 1.30201 19.156 0.937012 19.113C2.99901 20.436 5.44701 21.206 8.07701 21.206C16.647 21.206 21.332 14.108 21.332 7.95201C21.332 7.75201 21.327 7.55001 21.318 7.35001C22.228 6.69201 23.018 5.87301 23.641 4.94001L23.643 4.93701Z" fill="white"/>
</svg>

<svg viewBox="0 0 24 24" aria-hidden="true">
  <path d="M23.643 4.937c-.835.37-1.732.62-2.675.733.962-.576 1.7-1.49 2.048-2.578-.9.534-1.897.922-2.958 1.13-.85-.904-2.06-1.47-3.4-1.47-2.572 0-4.658 2.086-4.658 4.66 0 .364.042.718.12 1.06-3.873-.195-7.304-2.05-9.602-4.868-.4.69-.63 1.49-.63 2.342 0 1.616.823 3.043 2.072 3.878-.764-.025-1.482-.234-2.11-.583v.06c0 2.257 1.605 4.14 3.737 4.568-.392.106-.803.162-1.227.162-.3 0-.593-.028-.877-.082.593 1.85 2.313 3.198 4.352 3.234-1.595 1.25-3.604 1.995-5.786 1.995-.376 0-.747-.022-1.112-.065 2.062 1.323 4.51 2.093 7.14 2.093 8.57 0 13.255-7.098 13.255-13.254 0-.2-.005-.402-.014-.602.91-.658 1.7-1.477 2.323-2.41z"></path>
</svg>
